X:1
T:Vingt Mélodies
T:Chanson Lointaine
T:1. Chanson Lointaine
T:Augusta Holmès
T:Vingt Mélodies
T:à Mademoiselle CLARA CADIOT
T:OpenScore (CC0)
T:OpenScore (CC0)
T:OpenScore (CC0)
T:OpenScore (CC0)
T:OpenScore (CC0)
T:OpenScore (CC0)
C:Augusta Holmès
Z:Augusta Holmès
Z:OpenScore (CC0)
%%score 1 { ( 2 6 ) | ( 3 4 5 ) }
L:1/8
Q:1/4=69
M:3/4
K:Ab
V:1 treble nm="Chant\nVoice"
V:2 treble nm="Piano"
V:6 treble 
V:3 bass 
V:4 bass 
V:5 bass 
V:1
"^Andante con moto""_Andante con moto" z6 | z6 | z6 | z6 |!p!!<(! A2 A2 z B!<)! |!mp! c4 A3/2 E/ | %6
w: ||||Bien loin, là-|bas, au pa-|
 F2 B3 G |!>(! A4!p! E2!>)! |!<(! A2 A3 B!<)! |!mp! c4- c E |!>(! F3 F B G!>)! |!p! A4- A z | %12
w: ys de Bo-|hê- me,|Dans un pa-|lais * aux|murs de di- a-|mant *|
!f! d2 A3 F | c4 G3/2 =E/ | =A2 =d3 =B | (c4 G) z |!p! d2 A3 F | c4- c C | D3 E G B | A4- A z || %20
w: On en- fer-|ma la Prin-|ces- se que|j'ai- me!|De- puis ce|jour * je|meurs de mon tour-|ment! *|
!mf!!<(! (c4 ef!<)! |!f!!>(! c4!mf! B)!>)! z |!<(! (c3 c e f!<)! |!f!!>(! c4!mf! B)!>)! z | %24
w: O tour- te-|rel- le!|Vole à ti- re|d'ai- le,|
!<(! A2 G3 F!<)! |!>(! (c4 G)!>)!!p! =E | G4 (3=D =E F | G4- G z |!mf!!<(! (c4 e!<)! f | %29
w: Porte à ma|bel- le, Mes|pleurs et mon dé-|sir! *|O tour- te-|
!f!!>(! c4!mf! B)!>)! z |!<(! (c3 c e!<)! f |!f!!>(! c4!mf! B)!>)! z |!f!!<(! A2 _f3!<)!!ff! !>!f | %33
w: rel- le,|Vole à ti- re|d'ai- le.|Car c'est pour|
!>(! (!>!e3 c) A C!>)! |!p! D2 B4 | A4- A z || z6 | z3 z z2 | z6 | z6 | z6 | z6 | z6 | z6 | %44
w: el- le Que je|veux mou-|rir! *|||||||||
!p!!<(! A2 A3 B!<)! |!mp! c4 A3/2 E/ | F2 B3 G |!>(! (A4!p! E2)!>)! |!<(! A2 A3!mp! B!<)! | %49
w: Pau- vre chas-|seur, sans tré-|sors ni tro-|phé- es,|Je cherche en|
 c4 A3/2 E/ | F2 B3 G | A4- A z |!f! d2 A3 F | c4 G3/2 =E/ | =A2 =d3 =B | (c4 G) z |!p! d2 A3 F | %57
w: vain par les|nuits et les|jours, *|Sur la mon-|tagne où les|ro- ses sont|fé- es,|La fleur qui|
 c4- c C | D3 E G B | A4- A z ||!mf!!<(! (c4 ef!<)! |!f!!>(! c4 B)!>)! z | %62
w: doit * me|ren- dre mes a-|mours! *|O tour- te-|rel- le,|
!mf!!<(! (c3 c e!<)!!f!f |!>(! c4 B)!>)! z |!p!!<(! A2 G3 F!<)! |!mp! (c4 G) =E | G4 (3(=D =E F) | %67
w: Vole à ti- re|d'ai- le!|Porte à ma|bel- le, Mes|pleurs et mon dé-|
 G4- G z |!mf!!<(! (c4 e!f! f!<)! |!>(! c4 B)!>)! z |!mf!!<(! (c3 c e!<)!!f! f | %71
w: sir! *|O tour- te-|rel- le,|Vole à ti- re|
!>(! c4!mf! B)!>)! z |!f!!<(! A2 !>!_f3 !>!f!<)! |!>(! (!>!e3 c) (A C)!>)! |!p! D2 B4 | A4- A z | %76
w: d'ai- le,|Car c'est pour|el- le Que je|veux mou-|rir!... *|
 z6 | z6 | z6 | z6 | z6 | z6 | z6 | z6 |] %84
w: ||||||||
V:2
 z z/ ([ce]/4f/4 .[ce]).[cec'].[ce].[c_f] | z z/ ([df]/4g/4 .[df]).[dfd'].[df].[d_f] | %2
 z z/ ([ce]/4f/4 .[ce]).[cec'].[ce].[c_f] | z z/ ([df]/4g/4 .[df]).[dfd'].[df].[d_f] | %4
 z z/ ([ce]/4f/4 .[ce]).[cec'] [ce]2 | z z/ ([ce]/4f/4 .[ce]).[cec'] [ce]2 | %6
 z z/ ([df]/4g/4 .[df]).[dfd'] [df]2 | z z/ ([ce]/4f/4 .[ce]).[cec'] [ce]2 | %8
 z z/ ([ce]/4f/4 .[ce]).[cec'] [ce]2 | z z/ ([ce]/4f/4 .[ce]).[cec'] [ce]2 | %10
 z z/ ([df]/4g/4 .[df]).[dfd'] [df]2 | z z/ ([ce]/4f/4 .[ce]).[cec'] [ce]2 | %12
"_cresc." z z/ ([df]/4g/4 .[df]).[dfd'] [df]2 | z z/ ([=eg]/4=a/4 .[eg]).[eg=e'] [eg]2 | %14
 z z/!f! ([f=a]/4=b/4 .[fa]).[faf'] [fa]2 | z z/ ([=eg]/4=a/4 .[eg]).[eg=e'] [eg]2 | %16
 z z/ ([df]/4=g/4 .[df]).[dfd'] [df]2!p! | z z/ ([ce]/4f/4 .[ce]).[cec'] [ce]2 | %18
 z z/ ([df]/4g/4 .[df]).[dfd'] [df]2 | z z/ ([ce]/4f/4 .[ce]).[cec'] [ce]2 || %20
 z z/ ([ce]/4f/4 .[ce]).[cec'] [ce]2 | z z/ ([df]/4g/4 .[df]).[dfd'] [df]2 | %22
 z z/ ([ce]/4f/4 .[ce]).[cec'] [ce]2 | z z/ ([df]/4g/4 .[df]).[dfd'] [df]2 | %24
 z z/ ([fa]/4b/4 .[fa]).[faf'] [fa]2!p! | z z/ ([=eg]/4=a/4 .[eg]).[eg=e'] [eg]2 | %26
!p! z z/ ([f=a]/4=b/4 .[fa]).[faf'] [fa]2 | z z/ ([df]/4g/4 .[df]).[dfd'] [df]2 | %28
 z!mf! z/!<(! ([ce]/4f/4 .[ce]).[cec'] [ce]2!<)! | z z/ ([df]/4g/4 .[df]).[dfd'] [df]2 | %30
 z!mf! z/!<(! ([ce]/4f/4 .[ce]).[cec'] [ce]2!<)! | z z/ ([df]/4g/4 .[df]).[dfd'] [df]2 | %32
 z!f! z/ ([__ea]/4__b/4 .[ea]).[ea__e'] [ea]2 | z z/ ([ce]/4f/4 .[ce]).[cec'] [ce]2 | %34
!p! z z/ ([df]/4g/4 .[df]).[dfd'] [df]2 | z z/ ([ce]/4f/4 .[ce]).[cec'] [ce]2 || %36
 z z/ ([ce]/4f/4 .[ce]).[cec'] [ce]2!pp! | z z/ ([df]/4g/4 .[df]).[dfd'] [df]2 | %38
 z z/ ([ce]/4f/4 .[ce]).[cec'] [ce]2 | z z/ (([df]/4g/4 .[df])).[dfd'] [df]2 | %40
!f! z z/ ([__ea]/4__b/4 .[ea]).[ea__e'] [ea]2 | z z/ ([ce]/4f/4 .[ce])"_dim.".[cec'] [ce]2 | %42
 z z/ ([df]/4g/4 .[df]).[dfd'] [df]2 | [CE] z/ ([ce]/4f/4 .[ce]).[cec'] [ce]2 | %44
 z z/ ([ce]/4f/4 .[ce]).[cec'] [ce]2 | z z/ ([ce]/4f/4 .[ce]).[cec'] [ce]2 | %46
 z z/ ([df]/4g/4 .[df]).[dfd'] [df]2 | z z/ ([ce]/4f/4 .[ce]).[cec'] [ce]2 | %48
 z z/ ([ce]/4f/4 .[ce]).[cec'] [ce]2 | z z/ ([ce]/4f/4 .[ce]).[cec'] [ce]2 | %50
 z z/ (([df]/4g/4 .[df])).[dfd'] [df]2 | z z/ (([ce]/4f/4 .[ce])).[cec'] [ce]2 | %52
"_cresc." z z/ ([df]/4=g/4 .[df]).[dfd'] [df]2 | z z/ ([=eg]/4=a/4 .[eg]).[eg=e'] [eg]2 | %54
 z z/ ([f=a]/4=b/4 .[fa]).[faf'] [fa]2 | z z/ ([=eg]/4=a/4 .[eg]).[eg=e'] [eg]2 | %56
 z!p! z/ ([df]/4g/4 .[df]).[dfd'] [df]2 | z z/ ([ce]/4f/4 .[ce]).[cec'] [ce]2 | %58
 z z/ ([df]/4g/4 .[df]).[dfd'] [df]2 | z z/ ([ce]/4f/4 .[ce]).[cec'] [ce]2 || %60
 z!mf! z/ ([ce]/4f/4 .[ce]).[cec'] [ce]2 | z z/ ([df]/4g/4 .[df]).[dfd'] [df]2 | %62
 z z/ ([ce]/4f/4 .[ce]).[cec'] [ce]2 | z z/ ([df]/4g/4 .[df]).[dfd'] [df]2 | %64
!p! z z/ ([fa]/4b/4 .[fa]).[faf'] [fa]2 | z z/ ([=eg]/4=a/4 .[eg]).[eg=e'] [eg]2 | %66
 z z/ ([f=a]/4=b/4 .[fa]).[faf'] [fa]2!p! | z z/ ([df]/4g/4 .[df]).[dfd'] [df]2 | %68
!mf! z z/ ([ce]/4f/4 .[ce]).[cec'] [ce]2 | z z/ ([df]/4g/4 .[df]).[dfd'] [df]2 | %70
 z z/ ([ce]/4f/4 .[ce]).[cec'] [ce]2 | z z/ ([df]/4g/4 .[df]).[dfd'] [df]2 | %72
 z!f! z/ ([__ea]/4__b/4 .[ea]).[ea__e'] [ea]2 |"_dim." z z/ ([ce]/4f/4 .[ce]).[cec'] [ce]2 | %74
 z!p! z/ (([df]/4g/4 .[df])).[dfd'] [df]2 | z z/ (([ce]/4f/4 .[ce])).[cec'] [ce]2 | %76
 z z/ ([ce]/4f/4 .[ce]).[cec'] [ce]2 | z z/ ([df]/4g/4 .[df]).[dfd'] [df]2 | %78
 z z/ ([ce]/4f/4 .[ce]).[cec'] [ce]2 | z z/ (([df]/4g/4 .[df])).[dfd'] [df]2 | %80
!f! z z/ ([__ea]/4__b/4 .[ea]).[ea__e'] [ea]2 | z z/ ([ce]/4f/4!>(! .[ce]).[cec'] [ce]2 | %82
 z z/ ([df]/4g/4 .[df])!>)!.[dfd']!p! [df]2 | !arpeggio![A,CA]4- [A,CA] z |] %84
V:3
!pp!"_una corda"!ped! z z/4 E,/4A,/4-C/4- [A,C]2- [A,C] z!ped-up! | %1
!ped! z z/4 E,/4G,/4-D/4- [G,D]2- [G,D] z!ped-up! | %2
!ped! z z/4 E,/4A,/4-C/4- [A,C]2- [A,C] z!ped-up! | %3
!ped! z z/4 E,/4G,/4-D/4- [G,D]2- [G,D] z!ped-up! | %4
!pp!!ped! z z/4 E,/4A,/4-C/4- [A,C]2- [A,C] z!ped-up! | %5
!ped! z z/4 E,/4A,/4-C/4- [A,C]2- [A,C] z!ped-up! | %6
!ped! z z/4 E,/4G,/4-D/4- [G,D]2- [G,D] z!ped-up! | %7
!ped! z z/4 E,/4A,/4-C/4- [A,C]2- [A,C] z!ped-up! | %8
!ped! z z/4 E,/4A,/4-C/4- [A,C]2- [A,C] z!ped-up! | %9
!ped! z z/4 E,/4A,/4-C/4- [A,C]2- [A,C] z!ped-up! | %10
!ped! z z/4 E,/4G,/4-D/4- [G,D]2- [G,D] z!ped-up! | %11
!ped! z z/4 E,/4A,/4-C/4- [A,C]2- [A,C] z!ped-up! | %12
!f!!ped! z z/4 A,/4D/4-F/4- [DF]2- [DF] z!ped-up! | %13
!ped! z z/4 G,/4C/4-=E/4- [CE]2- [CE] z!ped-up! | %14
!ped! z z/4 G,/4=B,/4-F/4- [B,F]2- [B,F] z!ped-up! | %15
!ped! z z/4 G,/4C/4-=E/4- [CE]2- [CE] z!ped-up! |!ped! z z/4 A,/4D/4-F/4- [DF]2- [DF] z!ped-up! | %17
!ped! z z/4 E,/4A,/4-C/4- [A,C]2- [A,C] z!ped-up! | %18
!ped! z z/4 E,/4G,/4-D/4- [G,D]2- [G,D] z!ped-up! | %19
!ped! z z/4 E,/4A,/4-C/4- [A,C]2- [A,C] z!ped-up! || %20
!mf!!ped! z z/4 E,/4A,/4-C/4- [A,C]2- [A,C] z!ped-up! | %21
!ped! z z/4 E,/4G,/4-D/4- [G,D]2- [G,D] z!ped-up! | %22
!ped! z z/4 E,/4A,/4-C/4- [A,C]2- [A,C] z!ped-up! | %23
!ped! z z/4 E,/4G,/4-D/4- [G,D]2- [G,D] z!ped-up! | %24
!ped! z z/4 F,/4A,/4-C/4- [A,C]2- [A,C] z!ped-up! | %25
!ped! z z/4 G,/4C/4-=E/4- [CE]2- [CE] z!ped-up! | %26
!ped! z z/4 G,/4=B,/4-F/4- [=B,F]2- [=B,F] z!ped-up! | %27
!ped! z z/4 E,/4G,/4-D/4- [G,D]2- [G,D] z!ped-up! | %28
!ped! z z/4 E,/4A,/4-=C/4- [A,C]2- [A,C] z!ped-up! | %29
!ped! z z/4 E,/4G,/4-D/4- [G,D]2- [G,D] z!ped-up! | %30
!ped! z z/4 E,/4A,/4-C/4- [A,C]2- [A,C] z!ped-up! | %31
!ped! z z/4 E,/4G,/4-D/4- [G,D]2- [G,D] z!ped-up! | %32
!ped! z z/4 _F,/4A,/4-__E/4- [A,E]2- [A,E] z!ped-up! | %33
!ped! z z/4 E,/4A,/4-C/4- [A,C]2- [A,C] z!ped-up! | %34
!ped! z z/4 E,/4G,/4-D/4- [G,D]2- [G,D] z!ped-up! | %35
!ped! z z/4 E,/4A,/4-C/4- [A,C]2- [A,C] z!ped-up! || %36
"^M. D.""_il canto marcato"!ped! !>!C2"^M. G." !>!E3"^M. D." !>!F!ped-up! | %37
"^M. D."!ped! (!>!C4"^M. G." !>!B,2)!ped-up! | %38
"^M. D."!ped! !>!C2"^M. G." !>!E3"^M. D." !>!F!ped-up! | %39
"^M. D."!ped! (!>!C4"^M. G." !>!B,2)!ped-up! | %40
"^M. D."!ped! !>!A,2"^M. G." !>!_F3"^M. D." !>!F!ped-up! | %41
"^M. D."!ped! !>!E3"^M. G." (CA,C,!ped-up! |!ped! D,2 B,4)!ped-up! | %43
!ped! z z/4!p! E,/4A,/4-C/4- [E,A,-C-]2 [E,A,C]2!ped-up! | %44
!pp!"_una corda"!ped! z z/4 E,/4A,/4-C/4- [A,C]2- [A,C] z!ped-up! | %45
!ped! z z/4 E,/4A,/4-C/4- [A,C]2- [A,C] z!ped-up! | %46
!ped! z z/4 E,/4G,/4-D/4- [G,D]2- [G,D] z!ped-up! | %47
!ped! z z/4 E,/4A,/4-C/4- [A,C]2- [A,C] z!ped-up! | %48
!ped! z z/4 E,/4A,/4-C/4- [A,C]2- [A,C] z!ped-up! | %49
!ped! z z/4 E,/4A,/4-C/4- [A,C]2- [A,C] z!ped-up! | %50
!ped! z z/4 E,/4G,/4-D/4- [G,D]2- [G,D] z!ped-up! | %51
!ped! z z/4 E,/4A,/4-C/4- [A,C]2- [A,C] z!ped-up! | %52
!f!!ped! z z/4 A,/4D/4-F/4- [DF]2- [DF] z!ped-up! | %53
!ped! z z/4 G,/4C/4-=E/4- [CE]2- [CE] z!ped-up! | %54
!ped! z z/4 G,/4=B,/4-F/4- [B,F]2- [B,F] z!ped-up! | %55
!ped! z z/4 G,/4C/4-=E/4- [CE]2- [CE] z!ped-up! |!ped! z z/4 A,/4D/4-F/4- [DF]2- [DF] z!ped-up! | %57
!ped! z z/4 E,/4A,/4-C/4- [A,C]2- [A,C] z!ped-up! | %58
!ped! z z/4 E,/4G,/4-D/4- [G,D]2- [G,D] z!ped-up! | %59
!ped! z z/4 E,/4A,/4-C/4- [A,C]2- [A,C] z!ped-up! || %60
!ped! z z/4 E,/4A,/4-C/4- [A,C]2- [A,C] z!ped-up! | %61
!ped! z z/4 E,/4G,/4-D/4- [G,D]2- [G,D] z!ped-up! | %62
!ped! z z/4 E,/4A,/4-C/4- [A,C]2- [A,C] z!ped-up! | %63
!ped! z z/4 E,/4G,/4-D/4- [G,D]2- [G,D] z!ped-up! | %64
!ped! z z/4 F,/4A,/4-C/4- [A,C]2- [A,C] z!ped-up! | %65
!ped! z z/4 G,/4C/4-=E/4- [CE]2- [CE] z!ped-up! | %66
!ped! z z/4 G,/4=B,/4-F/4- [B,F]2- [B,F] z!ped-up! | %67
!ped! z z/4 E,/4G,/4-D/4- [G,D]2- [G,D] z!ped-up! | %68
!ped! z z/4 E,/4A,/4-C/4- [A,C]2- [A,C] z!ped-up! | %69
!ped! z z/4 E,/4G,/4-D/4- [G,D]2- [G,D] z!ped-up! | %70
!ped! z z/4 E,/4A,/4-C/4- [A,C]2- [A,C] z!ped-up! | %71
!ped! z z/4 E,/4G,/4-D/4- [G,D]2- [G,D] z!ped-up! | %72
!ped! z z/4 _F,/4A,/4-__E/4- [A,__E]2- [A,E] z!ped-up! | %73
!ped! z z/4 E,/4A,/4-C/4- [A,C]2- [A,C] z!ped-up! | %74
!ped! z z/4 E,/4G,/4-D/4- [G,D]2- [G,D] z!ped-up! | %75
!ped! z z/4 E,/4A,/4-C/4- [A,C]2- [A,C] z!ped-up! | %76
"^M. D.""_il canto marcato"!ped! !>!C2"^M. G." !>!E3"^M. D." !>!F!ped-up! | %77
"^M. D."!ped! (!>!C4"^M. G." !>!B,2)!ped-up! | %78
"^M. D."!ped! !>!C2"^M. G." !>!E3"^M. D." !>!F!ped-up! | %79
"^M. D."!ped! (!>!C4"^M. G." !>!B,2)!ped-up! | %80
"^M. D."!ped! !>!A,2"^M. G." !>!_F3"^M. D." !>!F!ped-up! | %81
"^M. D."!ped! !>!E3"^M. G." (CA,C,!ped-up! |!ped! D,2 B,4)!ped-up! | %83
!pp!!ped! [A,,,A,,]4- [A,,,A,,]2!ped-up! |] %84
V:4
 A,,,2 E,2 E,2 | E,,2 E,2 E,2 | A,,,2 E,2 E,2 | E,,2 E,2 E,2 | A,,,2 E,2 E,2 | A,,,2 E,2 E,2 | %6
 E,,2 E,2 E,2 | A,,,2 E,2 E,2 | A,,,2 E,2 E,2 | A,,,2 E,2 E,2 | E,,2 E,2 E,2 | A,,2 E,2 E,2 | %12
 D,,2 A,2 A,2 | C,,2 G,2 G,2 | G,,,2 G,2 G,2 | C,,2 G,2 G,2 | D,,2 A,2 A,2 | E,,2 E,2 E,2 | %18
 E,,2 E,2 E,2 | A,,2 E,2 E,2 || A,,,2 E,2 E,2 | E,,2 E,2 E,2 | A,,,2 E,2 E,2 | E,,2 E,2 E,2 | %24
 F,,2 F,2 F,2 | C,,2 G,2 G,2 | G,,,2 G,2 G,2 | E,,2 x2 x2 | A,,,2 E,2 E,2 | E,,2 E,2 E,2 | %30
 A,,,2 E,2 E,2 | E,,2 E,2 E,2 | _F,,2 _F,2 F,2 | A,,2 E,2 E,2 | E,,2 E,2 E,2 | A,,,2 E,2 E,2 || %36
 z z/4 E,/4-A,/4-C/4- [E,A,C]2 [E,A,C] z | z z/4 E,/4G,/4-D/4- [E,G,D]2- !>![E,G,D]2 | %38
 z z/4 E,/4-A,/4-C/4- [E,-A,C]2 [E,A,C] z | z z/4 E,/4G,/4-D/4- [E,G,D]2- [E,G,D]2 | %40
 z z/4 _F,/4-A,/4-_C/4- [F,A,C]2 [F,A,C] z | z z/4 E,/4A,/4-C/4- [E,A,C] z z2 | %42
 !arpeggio!E,,2 z2 E,, z | A,,,2 z2 z2 | A,,,2 E,2 E,2 | A,,,2 E,2 E,2 | E,,2 E,2 E,2 | %47
 A,,,2 E,2 E,2 | A,,,2 E,2 E,2 | A,,,2 E,2 E,2 | E,,2 E,2 E,2 | A,,,2 E,2 E,2 | D,,2 A,2 A,2 | %53
 C,,2 G,2 G,2 | G,,,2 G,2 G,2 | C,,2 G,2 G,2 | D,,2 A,2 A,2 | E,,2 E,2 E,2 | E,,2 E,2 E,2 | %59
 A,,2 E,2 E,2 || A,,,2 E,2 E,2 | E,,2 E,2 E,2 | A,,,2 E,2 E,2 | E,,2 E,2 E,2 | F,,2 F,2 F,2 | %65
 C,,2 G,2 G,2 | G,,,2 G,2 G,2 | E,,2 E,2 E,2 | A,,,2 E,2 E,2 | E,,2 E,2 E,2 | A,,,2 E,2 E,2 | %71
 E,,2 E,2 E,2 | z2 _F,2 F,2 | A,,2 E,2 E,2 | E,,2 E,2 E,2 | A,,,2 E,2 E,2 | %76
 z z/4!pp! E,/4-A,/4-C/4- [E,A,C]2 [E,A,C] z | z z/4 E,/4G,/4-D/4- [E,G,D]2- !>![E,G,D]2 | %78
 z z/4 E,/4-A,/4-C/4- [E,A,C]2 [E,A,C] z | z z/4 E,/4G,/4-D/4- [E,G,D]2- [E,G,D]2 | %80
 z z/4 _F,/4-A,/4-_C/4- [F,A,C]2 [F,A,C] z | z z/4 E,/4A,/4-C/4- [E,A,C] z x2 | %82
 !arpeggio!E,,2 z2 E,, z | x6 |] %84
V:5
 x2 z2 z2 | x2 z2 z2 | x2 z2 z2 | x2 z2 z2 | x2 z2 z2 | x2 z2 z2 | x2 z2 z2 | x2 z2 z2 | x2 z2 z2 | %9
 x2 z2 z2 | x2 z2 z2 | x2 z2 z2 | x2 z2 z2 | x2 z2 z2 | x2 z2 z2 | x2 z2 z2 | x2 z2 z2 | x2 z2 z2 | %18
 x2 z2 z2 | x2 z2 z2 || x2 z2 z2 | x2 z2 z2 | x2 z2 z2 | x2 z2 z2 | x2 z2 z2 | x2 z2 z2 | %26
 x2 z2 z2 | x2 z2 z2 | x2 z2 z2 | x2 z2 z2 | x2 z2 z2 | x2 z2 z2 | x2 z2 z2 | x2 z2 z2 | x2 z2 z2 | %35
 x2 z2 z2 || A,,,2 z2 z2 | E,,2 z2 z2 | A,,,2 z2 z2 | E,,2 z2 z2 | _F,,2 z2 z2 | A,,2 z2 z2 | x6 | %43
 x6 | x2 z2 z2 | x2 z2 z2 | x2 z2 z2 | x2 z2 z2 | x2 z2 z2 | x2 z2 z2 | x2 z2 z2 | x2 z2 z2 | %52
 x2 z2 z2 | x2 z2 z2 | x2 z2 z2 | x2 z2 z2 | x2 z2 z2 | x2 z2 z2 | x2 z2 z2 | x2 z2 z2 || %60
 x2 z2 z2 | x2 z2 z2 | x2 z2 z2 | x2 z2 z2 | x2 z2 z2 | x2 z2 z2 | x2 z2 z2 | x2 z2 z2 | x2 z2 z2 | %69
 x2 z2 z2 | x2 z2 z2 | x2 z2 z2 | _F,,2 z2 z2 | x2 z2 z2 | x2 z2 z2 | x2 z2 z2 | A,,,2 z2 z2 | %77
 E,,2 z2 z2 | A,,,2 z2 z2 | E,,2 z2 z2 | _F,,2 z2 z2 | A,,2 z2 z2 | x6 | x6 |] %84
V:6
 x6 | x6 | x6 | x6 | x6 | x6 | x6 | x6 | x6 | x6 | x6 | x6 | x6 | x6 | x6 | x6 | x6 | x6 | x6 | %19
 x6 || x6 | x6 | x6 | x6 | x6 | x6 | x6 | x6 | x6 | x6 | x6 | x6 | x6 | x6 | x6 | x6 || x6 | x6 | %38
 x6 | x6 | x6 | x6 | x6 | A,2- A, z z2 | x6 | x6 | x6 | x6 | x6 | x6 | x6 | x6 | x6 | x6 | x6 | %55
 x6 | x6 | x6 | x6 | x6 || x6 | x6 | x6 | x6 | x6 | x6 | x6 | x6 | x6 | x6 | x6 | x6 | x6 | x6 | %74
 x6 | x6 | x6 | x6 | x6 | x6 | x6 | x6 | x6 | x6 |] %84

